ui/StatusQ/src/assets/img/icons/network/Network=Optimism-test.svg

<svg width="25" height="24" viewBox="0 0 25 24" fill="none" xmlns="http://www.w3.org/2000/svg">
<path d="M12.8086 24C19.436 24 24.8086 18.6274 24.8086 12C24.8086 5.37258 19.436 0 12.8086 0C6.18118 0 0.808594 5.37258 0.808594 12C0.808594 18.6274 6.18118 24 12.8086 24Z" fill="#858CCC"/>
<path d="M9.30958 15.1879C8.59438 15.1879 8.00878 15.0199 7.55278 14.6839C7.10158 14.3431 6.87598 13.8535 6.87598 13.2247C6.87598 13.0903 6.89038 12.9319 6.91918 12.7399C6.99598 12.3079 7.10638 11.7895 7.25038 11.1799C7.65838 9.52872 8.71438 8.70312 10.4136 8.70312C10.8744 8.70312 11.292 8.77992 11.6568 8.93832C12.0216 9.08712 12.3096 9.31752 12.5208 9.62472C12.732 9.92712 12.8376 10.2871 12.8376 10.7047C12.8376 10.8295 12.8232 10.9879 12.7944 11.1799C12.7032 11.7127 12.5976 12.2359 12.468 12.7399C12.2568 13.5607 11.8968 14.1799 11.3784 14.5879C10.8648 14.9911 10.1736 15.1879 9.30958 15.1879ZM9.43918 13.8919C9.77518 13.8919 10.0584 13.7911 10.2936 13.5943C10.5336 13.3975 10.7064 13.0951 10.8072 12.6823C10.9464 12.1159 11.052 11.6263 11.124 11.2039C11.148 11.0791 11.1624 10.9495 11.1624 10.8151C11.1624 10.2679 10.8792 9.99432 10.308 9.99432C9.97198 9.99432 9.68398 10.0951 9.44398 10.2919C9.20878 10.4887 9.04078 10.7911 8.93998 11.2039C8.82958 11.6071 8.72398 12.0967 8.61358 12.6823C8.58958 12.8023 8.57518 12.9271 8.57518 13.0615C8.57038 13.6183 8.86318 13.8919 9.43918 13.8919Z" fill="white"/>
<path d="M13.2544 15.1002C13.1872 15.1002 13.1392 15.081 13.1008 15.0378C13.072 14.9898 13.0624 14.937 13.072 14.8746L14.3152 9.01857C14.3248 8.95137 14.3584 8.89857 14.416 8.85537C14.4688 8.81217 14.5264 8.79297 14.5888 8.79297H16.984C17.6512 8.79297 18.184 8.93217 18.5872 9.20577C18.9952 9.48417 19.2016 9.88257 19.2016 10.4058C19.2016 10.5546 19.1824 10.713 19.1488 10.8762C19 11.5674 18.6976 12.0762 18.2368 12.4074C17.7856 12.7386 17.1664 12.9018 16.3792 12.9018H15.1648L14.752 14.8746C14.7376 14.9418 14.7088 14.9946 14.6512 15.0378C14.5984 15.081 14.5408 15.1002 14.4784 15.1002H13.2544ZM16.4416 11.6586C16.696 11.6586 16.912 11.5914 17.0992 11.4522C17.2912 11.313 17.416 11.1162 17.4784 10.857C17.4976 10.7562 17.5072 10.665 17.5072 10.5882C17.5072 10.4154 17.4544 10.281 17.3536 10.1898C17.2528 10.0938 17.0752 10.0458 16.8304 10.0458H15.7504L15.4096 11.6586H16.4416Z" fill="white"/>
</svg>

<svg fill="none" height="24" viewBox="0 0 25 24" width="25" xmlns="http://www.w3.org/2000/svg"><path d="m12.8086 24c6.6274 0 12-5.3726 12-12 0-6.62742-5.3726-12-12-12-6.62742 0-12.000006 5.37258-12.000006 12 0 6.6274 5.372586 12 12.000006 12z" fill="#858ccc"/><g fill="#fff"><path d="m9.30958 15.1879c-.7152 0-1.3008-.168-1.7568-.504-.4512-.3408-.6768-.8304-.6768-1.4592 0-.1344.0144-.2928.0432-.4848.0768-.432.1872-.9504.3312-1.56.408-1.65118 1.464-2.47678 3.16322-2.47678.4608 0 .8784.0768 1.2432.2352.3648.1488.6528.3792.864.6864.2112.3024.3168.66238.3168 1.07998 0 .1248-.0144.2832-.0432.4752-.0912.5328-.1968 1.056-.3264 1.56-.2112.8208-.5712 1.44-1.0896 1.848-.5136.4032-1.2048.6-2.06882.6zm.1296-1.296c.336 0 .61922-.1008.85442-.2976.24-.1968.4128-.4992.5136-.912.1392-.5664.2448-1.056.3168-1.4784.024-.1248.0384-.2544.0384-.3888 0-.5472-.2832-.82078-.8544-.82078-.33602 0-.62402.10078-.86402.29758-.2352.1968-.4032.4992-.504.912-.1104.4032-.216.8928-.3264 1.4784-.024.12-.0384.2448-.0384.3792-.0048.5568.288.8304.864.8304z"/><path d="m13.2544 15.1002c-.0672 0-.1152-.0192-.1536-.0624-.0288-.048-.0384-.1008-.0288-.1632l1.2432-5.85603c.0096-.0672.0432-.12.1008-.1632.0528-.0432.1104-.0624.1728-.0624h2.3952c.6672 0 1.2.1392 1.6032.4128.408.2784.6144.6768.6144 1.20003 0 .1488-.0192.3072-.0528.4704-.1488.6912-.4512 1.2-.912 1.5312-.4512.3312-1.0704.4944-1.8576.4944h-1.2144l-.4128 1.9728c-.0144.0672-.0432.12-.1008.1632-.0528.0432-.1104.0624-.1728.0624zm3.1872-3.4416c.2544 0 .4704-.0672.6576-.2064.192-.1392.3168-.336.3792-.5952.0192-.1008.0288-.192.0288-.2688 0-.1728-.0528-.3072-.1536-.3984-.1008-.096-.2784-.144-.5232-.144h-1.08l-.3408 1.6128z"/></g></svg>
